usr/share/icons/biglinux-icons-material/16/actions/favorite-genres-amarok.svg

<svg xmlns="http://www.w3.org/2000/svg" viewBox="0 0 16 16">
  <defs id="defs3051">
    <style type="text/css" id="current-color-scheme">
      .ColorScheme-Text {
        color:#dedede;
      }
      </style>
  </defs>
 <path style="fill:currentColor;fill-opacity:1;stroke:none" 
       d="M 8 2 C 6.50647 2 5.1331494 2.3290737 4.1308594 2.9960938 C 3.1285694 3.6631136 2.49873 4.6741181 2.5 6.0175781 C 2.507 7.5358581 3.4683062 9.4949132 4.6289062 11.095703 C 5.2092063 11.896093 5.8397475 12.60705 6.4296875 13.125 C 7.0196075 13.64295 7.5655336 13.97215 7.9960938 14 L 8 14 L 8.0039062 14 C 8.4344664 13.9721 8.9803925 13.64295 9.5703125 13.125 C 10.160242 12.60705 10.790784 11.896093 11.371094 11.095703 C 12.531704 9.4949132 13.49291 7.5358581 13.5 6.0175781 C 13.50099 4.6741181 12.871431 3.6631136 11.869141 2.9960938 C 10.866851 2.3290738 9.49352 2 8 2 z M 8 4 L 8.9160156 5.9765625 L 10.986328 6.2988281 L 9.4785156 7.8300781 L 9.8203125 10 L 7.9707031 8.96875 L 6.1113281 9.9882812 L 6.4785156 7.8203125 L 4.9863281 6.2792969 L 7.0625 5.96875 L 8 4 z "
     class="ColorScheme-Text"
     />
</svg>

<svg xmlns="http://www.w3.org/2000/svg" viewBox="0 0 16 16"><path d="M8 2c-1.494 0-2.867.33-3.87.996C3.13 3.663 2.5 4.674 2.5 6.018c.007 1.518.968 3.477 2.129 5.078.58.8 1.21 1.511 1.8 2.029.59.518 1.137.847 1.567.875h.008c.43-.028.976-.357 1.566-.875.59-.518 1.22-1.229 1.801-2.03 1.16-1.6 2.122-3.56 2.129-5.077.001-1.344-.629-2.355-1.63-3.022C10.866 2.33 9.493 2 8 2zm0 2 .916 1.977 2.07.322L9.48 7.83 9.82 10 7.97 8.969l-1.859 1.02.368-2.169-1.493-1.54 2.077-.311L8 4z" style="fill:currentColor;fill-opacity:1;stroke:none;color:#dedede"/></svg>
